Numix-Light/16/status/indicator-keyboard-Es-5.svg

<?xml version="1.0" encoding="UTF-8" standalone="no"?>
<svg
   xmlns:dc="http://purl.org/dc/elements/1.1/"
   xmlns:cc="http://creativecommons.org/ns#"
   xmlns:rdf="http://www.w3.org/1999/02/22-rdf-syntax-ns#"
   xmlns:svg="http://www.w3.org/2000/svg"
   xmlns="http://www.w3.org/2000/svg"
   xmlns:sodipodi="http://sodipodi.sourceforge.net/DTD/sodipodi-0.dtd"
   xmlns:inkscape="http://www.inkscape.org/namespaces/inkscape"
   viewBox="0 0 16 16"
   id="svg2"
   version="1.1"
   inkscape:version="0.91 r13725"
   sodipodi:docname="indicator-keyboard-Es-5.svg">
  <metadata
     id="metadata14">
    <rdf:RDF>
      <cc:Work
         rdf:about="">
        <dc:format>image/svg+xml</dc:format>
        <dc:type
           rdf:resource="http://purl.org/dc/dcmitype/StillImage" />
      </cc:Work>
    </rdf:RDF>
  </metadata>
  <defs
     id="defs12" />
  <sodipodi:namedview
     pagecolor="#ffffff"
     bordercolor="#666666"
     borderopacity="1"
     objecttolerance="10"
     gridtolerance="10"
     guidetolerance="10"
     inkscape:pageopacity="0"
     inkscape:pageshadow="2"
     inkscape:window-width="640"
     inkscape:window-height="480"
     id="namedview10"
     showgrid="false"
     inkscape:zoom="14.75"
     inkscape:cx="8"
     inkscape:cy="8"
     inkscape:window-x="65"
     inkscape:window-y="24"
     inkscape:window-maximized="0"
     inkscape:current-layer="svg2" />
  <path
     style="fill:#353535;fill-opacity:1"
     d="M 1.5996094 0 C 0.71320937 2.9605947e-16 0 0.71320937 0 1.5996094 L 0 14.400391 C 2.9605947e-16 15.286791 0.71320937 16 1.5996094 16 L 14.400391 16 C 15.286791 16 16 15.286791 16 14.400391 L 16 1.5996094 C 16 0.71320937 15.286791 0 14.400391 0 L 1.5996094 0 z M 2.5722656 4.859375 L 6.171875 4.859375 L 6.171875 5.390625 L 3.1835938 5.390625 L 3.1835938 7.5585938 L 5.8476562 7.5585938 L 5.8476562 8.0800781 L 3.1835938 8.0800781 L 3.1835938 10.564453 L 6.40625 10.564453 L 6.40625 11.095703 L 2.5722656 11.095703 L 2.5722656 4.859375 z M 8.7871094 6.3359375 C 9.1051094 6.3359375 9.3663125 6.3620156 9.5703125 6.4160156 C 9.7803125 6.4700156 9.927719 6.5185469 10.011719 6.5605469 L 9.8769531 7.0820312 C 9.8049531 7.0460313 9.6818125 6.9975 9.5078125 6.9375 C 9.3398125 6.8775 9.0897656 6.8476562 8.7597656 6.8476562 C 8.6277656 6.8476562 8.5028125 6.8625781 8.3828125 6.8925781 C 8.2688125 6.9165781 8.1661719 6.9595312 8.0761719 7.0195312 C 7.9861719 7.0735313 7.9153281 7.144375 7.8613281 7.234375 C 7.8073281 7.318375 7.7792969 7.4247812 7.7792969 7.5507812 C 7.7792969 7.6767813 7.8035625 7.7830469 7.8515625 7.8730469 C 7.8995625 7.9630469 7.9685938 8.0451875 8.0585938 8.1171875 C 8.1545937 8.1831875 8.2683906 8.2466406 8.4003906 8.3066406 C 8.5383906 8.3666406 8.6951406 8.4319063 8.8691406 8.5039062 C 9.0491406 8.5759063 9.2188594 8.6505156 9.3808594 8.7285156 C 9.5488594 8.8005156 9.6962656 8.8900469 9.8222656 8.9980469 C 9.9482654 9.1000469 10.050906 9.2269531 10.128906 9.3769531 C 10.206906 9.5209531 10.246094 9.7037813 10.246094 9.9257812 C 10.246094 10.345781 10.085578 10.664859 9.7675781 10.880859 C 9.4555781 11.096859 9.0284219 11.203125 8.4824219 11.203125 C 8.0744219 11.203125 7.7609219 11.167703 7.5449219 11.095703 C 7.3289219 11.029703 7.1852812 10.979359 7.1132812 10.943359 L 7.265625 10.412109 C 7.283625 10.424109 7.3228125 10.444609 7.3828125 10.474609 C 7.4428125 10.498609 7.5249531 10.528453 7.6269531 10.564453 C 7.7289531 10.594453 7.8483281 10.622484 7.9863281 10.646484 C 8.1303281 10.670484 8.2964219 10.681641 8.4824219 10.681641 C 8.8184219 10.681641 9.0925937 10.627531 9.3085938 10.519531 C 9.5305938 10.405531 9.6425781 10.217125 9.6425781 9.953125 C 9.6425781 9.827125 9.6220781 9.7189062 9.5800781 9.6289062 C 9.5440781 9.5389063 9.480625 9.4587187 9.390625 9.3867188 C 9.300625 9.3147188 9.18125 9.2456875 9.03125 9.1796875 C 8.88725 9.1136875 8.7062344 9.0353125 8.4902344 8.9453125 C 8.3162344 8.8733125 8.1520938 8.8005156 7.9960938 8.7285156 C 7.8400938 8.6505156 7.7020312 8.56475 7.5820312 8.46875 C 7.4620312 8.36675 7.3649688 8.2454219 7.2929688 8.1074219 C 7.2209688 7.9694219 7.1855469 7.8015156 7.1855469 7.6035156 C 7.1855469 7.2255156 7.327375 6.9195469 7.609375 6.6855469 C 7.897375 6.4515469 8.2891094 6.3359375 8.7871094 6.3359375 z M 11.462891 8.8417969 L 13.289062 8.8417969 L 13.289062 9.1757812 L 11.796875 9.1757812 C 11.792942 9.2498812 11.787064 9.3458906 11.779297 9.4628906 C 11.771497 9.5798906 11.763659 9.6994188 11.755859 9.8242188 C 11.748059 9.9451188 11.738262 10.062681 11.726562 10.175781 C 11.714862 10.288881 11.705066 10.379012 11.697266 10.445312 C 11.997566 10.453112 12.256209 10.490341 12.474609 10.556641 C 12.693009 10.622941 12.873273 10.711119 13.013672 10.824219 C 13.154072 10.937319 13.257919 11.074475 13.324219 11.234375 C 13.394419 11.394275 13.427734 11.572578 13.427734 11.767578 C 13.427734 11.939178 13.400297 12.097894 13.341797 12.246094 C 13.287197 12.394294 13.200984 12.523613 13.083984 12.632812 C 12.966985 12.742012 12.818072 12.828225 12.638672 12.890625 C 12.459272 12.953025 12.247653 12.984375 12.001953 12.984375 C 11.877153 12.984375 11.759591 12.974578 11.650391 12.955078 C 11.545091 12.939478 11.449081 12.919884 11.363281 12.896484 C 11.281381 12.873084 11.210844 12.849572 11.152344 12.826172 C 11.093844 12.802772 11.050737 12.783178 11.023438 12.767578 L 11.123047 12.427734 C 11.146447 12.443334 11.185634 12.462928 11.240234 12.486328 C 11.298734 12.509728 11.365353 12.533241 11.439453 12.556641 C 11.517453 12.576141 11.603666 12.593775 11.697266 12.609375 C 11.794766 12.624975 11.896653 12.632812 12.001953 12.632812 C 12.196953 12.632812 12.357628 12.611259 12.486328 12.568359 C 12.618928 12.521559 12.724734 12.458859 12.802734 12.380859 C 12.880734 12.302859 12.935598 12.212728 12.966797 12.111328 C 13.001897 12.006028 13.019531 11.894337 13.019531 11.773438 C 13.019531 11.617438 12.994059 11.476362 12.943359 11.351562 C 12.892659 11.226762 12.802528 11.120956 12.673828 11.035156 C 12.545128 10.949356 12.372697 10.884697 12.154297 10.841797 C 11.935897 10.794997 11.657666 10.771484 11.322266 10.771484 C 11.345666 10.572584 11.365259 10.392316 11.380859 10.228516 C 11.396459 10.060816 11.410175 9.9001469 11.421875 9.7480469 C 11.433575 9.5920469 11.441412 9.4431281 11.445312 9.2988281 C 11.453113 9.1506281 11.458991 8.9977969 11.462891 8.8417969 z "
     id="path4" />
</svg>

<svg xmlns="http://www.w3.org/2000/svg" viewBox="0 0 16 16">
 <path d="m 1.6 0 c -0.886 0 -1.6 0.713 -1.6 1.6 l 0 12.801 c 0 0.886 0.713 1.6 1.6 1.6 l 12.801 0 c 0.886 0 1.6 -0.713 1.6 -1.6 l 0 -12.801 c 0 -0.886 -0.713 -1.6 -1.6 -1.6 l -12.801 0 z m 0.973 4.859 l 3.6 0 l 0 0.531 l -2.988 0 l 0 2.168 l 2.664 0 l 0 0.521 l -2.664 0 l 0 2.484 l 3.223 0 l 0 0.531 l -3.834 0 l 0 -6.236 z m 6.215 1.477 c 0.318 0 0.579 0.026 0.783 0.08 c 0.21 0.054 0.357 0.103 0.441 0.145 l -0.135 0.521 c -0.072 -0.036 -0.195 -0.085 -0.369 -0.145 c -0.168 -0.06 -0.418 -0.09 -0.748 -0.09 c -0.132 0 -0.257 0.015 -0.377 0.045 c -0.114 0.024 -0.217 0.067 -0.307 0.127 c -0.09 0.054 -0.161 0.125 -0.215 0.215 c -0.054 0.084 -0.082 0.19 -0.082 0.316 c 0 0.126 0.024 0.232 0.072 0.322 c 0.048 0.09 0.117 0.172 0.207 0.244 c 0.096 0.066 0.21 0.129 0.342 0.189 c 0.138 0.06 0.295 0.125 0.469 0.197 c 0.18 0.072 0.35 0.147 0.512 0.225 c 0.168 0.072 0.315 0.162 0.441 0.27 c 0.126 0.102 0.229 0.229 0.307 0.379 c 0.078 0.144 0.117 0.327 0.117 0.549 c 0 0.42 -0.161 0.739 -0.479 0.955 c -0.312 0.216 -0.739 0.322 -1.285 0.322 c -0.408 0 -0.722 -0.035 -0.938 -0.107 c -0.216 -0.066 -0.36 -0.116 -0.432 -0.152 l 0.152 -0.531 c 0.018 0.012 0.057 0.033 0.117 0.063 c 0.06 0.024 0.142 0.054 0.244 0.09 c 0.102 0.03 0.221 0.058 0.359 0.082 c 0.144 0.024 0.31 0.035 0.496 0.035 c 0.336 0 0.61 -0.054 0.826 -0.162 c 0.222 -0.114 0.334 -0.302 0.334 -0.566 c 0 -0.126 -0.021 -0.234 -0.063 -0.324 c -0.036 -0.09 -0.099 -0.17 -0.189 -0.242 c -0.09 -0.072 -0.209 -0.141 -0.359 -0.207 c -0.144 -0.066 -0.325 -0.144 -0.541 -0.234 c -0.174 -0.072 -0.338 -0.145 -0.494 -0.217 c -0.156 -0.078 -0.294 -0.164 -0.414 -0.26 c -0.12 -0.102 -0.217 -0.223 -0.289 -0.361 c -0.072 -0.138 -0.107 -0.306 -0.107 -0.504 c 0 -0.378 0.142 -0.684 0.424 -0.918 c 0.288 -0.234 0.68 -0.35 1.178 -0.35 z m 2.676 2.506 l 1.826 0 l 0 0.334 l -1.492 0 c -0.004 0.074 -0.01 0.17 -0.018 0.287 c -0.008 0.117 -0.016 0.237 -0.023 0.361 c -0.008 0.121 -0.018 0.238 -0.029 0.352 c -0.012 0.113 -0.021 0.203 -0.029 0.27 c 0.3 0.008 0.559 0.045 0.777 0.111 c 0.218 0.066 0.399 0.154 0.539 0.268 c 0.14 0.113 0.244 0.25 0.311 0.41 c 0.07 0.16 0.104 0.338 0.104 0.533 c 0 0.172 -0.027 0.33 -0.086 0.479 c -0.055 0.148 -0.141 0.278 -0.258 0.387 c -0.117 0.109 -0.266 0.195 -0.445 0.258 c -0.179 0.062 -0.391 0.094 -0.637 0.094 c -0.125 0 -0.242 -0.01 -0.352 -0.029 c -0.105 -0.016 -0.201 -0.035 -0.287 -0.059 c -0.082 -0.023 -0.152 -0.047 -0.211 -0.07 c -0.058 -0.023 -0.102 -0.043 -0.129 -0.059 l 0.1 -0.34 c 0.023 0.016 0.063 0.035 0.117 0.059 c 0.059 0.023 0.125 0.047 0.199 0.07 c 0.078 0.019 0.164 0.037 0.258 0.053 c 0.097 0.016 0.199 0.023 0.305 0.023 c 0.195 0 0.356 -0.022 0.484 -0.064 c 0.133 -0.047 0.238 -0.109 0.316 -0.188 c 0.078 -0.078 0.133 -0.168 0.164 -0.27 c 0.035 -0.105 0.053 -0.217 0.053 -0.338 c 0 -0.156 -0.025 -0.297 -0.076 -0.422 c -0.051 -0.125 -0.141 -0.231 -0.27 -0.316 c -0.129 -0.086 -0.301 -0.15 -0.52 -0.193 c -0.218 -0.047 -0.497 -0.07 -0.832 -0.07 c 0.023 -0.199 0.043 -0.379 0.059 -0.543 c 0.016 -0.168 0.029 -0.328 0.041 -0.48 c 0.012 -0.156 0.02 -0.305 0.023 -0.449 c 0.008 -0.148 0.014 -0.301 0.018 -0.457 z" style="fill:#353535;fill-opacity:1"/>
</svg>
